X: 14511
T: Gan Ainm
R: mazurka
M: 3/4
K: Gmajor
|:DG|B2 BA GB|d2 d2 ge|de dB cA|B2 B2 DG|
B2 BA GB|d2 d2 (3efg|a2 ag ab|g2 g2:|
|:d2|d'2 d'2 d2|b2 b2 ag|f2 fe fb|a2 a2 d2|
d'2 d'2 d2|b2 b2 (3efg|a2 ag fa|g2 g2:|

